static/assets/images/exchanges/kraken.svg

<svg width="332" height="256" viewBox="0 0 332 256" fill="none" xmlns="http://www.w3.org/2000/svg">
<path d="M0.960147 192.808C0.960147 186.516 1.06983 180.231 0.92141 173.939C0.627605 161.793 1.50718 149.648 3.5479 137.671C7.03266 117.576 13.3633 98.6032 23.7144 81.0568C41.0737 51.5847 65.5509 29.9146 96.3782 15.3883C109.993 8.87683 124.488 4.39583 139.402 2.08808C147.204 0.900683 155.038 -0.0673152 162.982 0.00367081C196.733 0.255348 228.161 8.59298 256.555 27.2107C284.375 45.467 305.258 69.6216 317.803 100.642C323.593 115.218 327.438 130.493 329.238 146.074C331.361 163.291 331.464 180.579 331.174 197.906C330.993 207.251 331.032 216.621 330.884 225.939C330.813 229.998 330.671 234.064 329.593 238.052C325.385 253.54 307.704 260.587 294.745 251.998C288.937 248.19 286.085 242.582 285.065 235.864C284.347 231.372 283.986 226.83 283.988 222.28V165.885C283.988 158.515 281.69 151.972 276.657 146.525C267.848 137.071 254.335 136.71 244.449 145.448C238.912 150.371 236.395 156.625 235.859 163.814C235.646 166.511 235.569 169.202 235.569 171.899C235.53 192.64 235.608 213.342 235.459 234.083C235.349 245.835 226.425 254.824 214.434 255.65C208.914 256.063 203.439 254.402 199.078 250.993C194.717 247.583 191.785 242.67 190.854 237.213C190.345 234.077 190.106 230.904 190.138 227.727C190.138 206.876 190.177 186.032 190.138 165.182C190.234 158.323 187.609 151.706 182.839 146.777C172.953 136.387 158.072 136.71 148.475 147.39C143.765 152.604 141.719 158.677 141.719 165.614C141.719 186.213 141.68 206.844 141.719 227.436C141.719 232.754 141.074 237.968 138.879 242.853C137.125 246.927 134.167 250.367 130.403 252.712C126.638 255.057 122.246 256.195 117.816 255.973C109.007 255.682 101.567 250.165 98.1916 241.304C96.8839 237.823 96.2276 234.13 96.2556 230.411C96.29 210.462 96.2771 190.513 96.2169 170.564C96.2169 166.143 96.0362 161.684 94.7068 157.405C91.6867 147.59 85.1431 141.337 75.0437 139.685C64.7636 137.994 57.1423 142.847 51.4312 151.114C48.7014 155.069 47.798 159.503 47.798 164.233C47.798 183.163 47.8109 202.092 47.8367 221.022C47.8367 226.591 47.9464 232.167 46.688 237.665C44.6036 246.796 35.8336 256.754 22.5721 255.779C13.4408 255.095 4.67077 247.545 2.12173 237.878C1.2611 234.458 0.840386 230.943 0.869792 227.417C0.979498 215.801 0.979488 204.308 0.940769 192.802L0.960147 192.808Z" fill="#806DF4"/>
</svg>

<svg xmlns="http://www.w3.org/2000/svg" fill="none" viewBox="0 0 332 256"><path fill="#806DF4" d="M.96 192.808c0-6.292.11-12.577-.039-18.869a189 189 0 0 1 2.627-36.268c3.485-20.095 9.815-39.068 20.166-56.614 17.36-29.472 41.837-51.142 72.664-65.669a154.5 154.5 0 0 1 43.024-13.3c7.802-1.187 15.636-2.155 23.58-2.084 33.751.251 65.179 8.589 93.573 27.207 27.82 18.256 48.703 42.41 61.248 73.431a178.6 178.6 0 0 1 11.435 45.432c2.123 17.217 2.226 34.505 1.936 51.832-.181 9.345-.142 18.715-.29 28.033-.071 4.059-.213 8.125-1.291 12.113-4.208 15.488-21.889 22.535-34.848 13.946-5.808-3.808-8.66-9.416-9.68-16.134a86 86 0 0 1-1.077-13.584v-56.395c0-7.37-2.298-13.913-7.331-19.36-8.809-9.454-22.322-9.815-32.208-1.077-5.537 4.923-8.054 11.177-8.59 18.366-.213 2.697-.29 5.388-.29 8.085-.039 20.741.039 41.443-.11 62.184-.11 11.752-9.034 20.741-21.025 21.567a22.24 22.24 0 0 1-23.58-18.437 55.7 55.7 0 0 1-.716-9.486c0-20.851.039-41.695 0-62.545a25.94 25.94 0 0 0-7.299-18.405c-9.886-10.39-24.767-10.067-34.364.613-4.71 5.214-6.756 11.287-6.756 18.224 0 20.599-.039 41.23 0 61.822 0 5.318-.645 10.532-2.84 15.417a21.75 21.75 0 0 1-21.063 13.12c-8.809-.291-16.249-5.808-19.624-14.669a30.3 30.3 0 0 1-1.936-10.893q.051-29.923-.04-59.847c0-4.421-.18-8.88-1.51-13.159-3.02-9.815-9.563-16.068-19.662-17.72-10.28-1.691-17.902 3.162-23.613 11.429-2.73 3.955-3.633 8.389-3.633 13.119q0 28.395.039 56.789c0 5.569.11 11.145-1.149 16.643-2.084 9.131-10.854 19.089-24.116 18.114-9.131-.684-17.901-8.234-20.45-17.901A41.5 41.5 0 0 1 .87 227.417c.11-11.616.11-23.109.07-34.615z"/></svg>
